assets/icons/Icon_favorites.svg

<svg id="favorites" width="20" height="20" viewBox="0 0 20 20" xmlns="http://www.w3.org/2000/svg">
<path d="M9.70414 17.4255L9.6987 17.4226L9.67982 17.4124C9.66375 17.4037 9.64076 17.3911 9.61131 17.3746C9.55243 17.3418 9.4677 17.2937 9.3608 17.2308C9.14708 17.105 8.84431 16.9199 8.48212 16.6791C7.75895 16.1984 6.79268 15.4917 5.82383 14.5886C3.90651 12.8013 1.875 10.1459 1.875 6.875C1.875 4.43495 3.928 2.5 6.40625 2.5C7.86365 2.5 9.1686 3.16591 10 4.20966C10.8314 3.16591 12.1363 2.5 13.5938 2.5C16.072 2.5 18.125 4.43495 18.125 6.875C18.125 10.1459 16.0935 12.8013 14.1762 14.5886C13.2073 15.4917 12.241 16.1984 11.5179 16.6791C11.1557 16.9199 10.8529 17.105 10.6392 17.2308C10.5323 17.2937 10.4476 17.3418 10.3887 17.3746C10.3592 17.3911 10.3363 17.4037 10.3202 17.4124L10.3013 17.4226L10.2959 17.4255L10.2936 17.4268C10.1103 17.5241 9.88974 17.5241 9.70644 17.4268L9.70414 17.4255Z" stroke-width="1.5" stroke-linejoin="round"/>
</svg>

<svg id="favorites" width="20" height="20" fill="currentcolor" xmlns="http://www.w3.org/2000/svg"><path d="m9.704 17.425-.005-.002-.02-.01a19.102 19.102 0 0 1-1.198-.733 20.98 20.98 0 0 1-2.657-2.091C3.907 12.8 1.875 10.146 1.875 6.875c0-2.44 2.053-4.375 4.531-4.375 1.458 0 2.763.666 3.594 1.71a4.583 4.583 0 0 1 3.594-1.71c2.478 0 4.531 1.935 4.531 4.375 0 3.27-2.032 5.926-3.949 7.714a20.989 20.989 0 0 1-3.537 2.642 12.325 12.325 0 0 1-.319.181l-.019.01-.005.003-.002.002a.627.627 0 0 1-.588 0l-.002-.002Z" stroke="#currentcolor" fill="currentcolor" stroke-width="1.5" stroke-linejoin="round"/></svg>
